X:1
T:In stiller Nacht
B:"Volkslied u. Volksmusik in O.Oe., Heft 21, 29 Fasten-, Passions- u. Osterlieder", Zusammenstellung: A. Bloechl, Herausgeber:  Oberoesterreichisches Volksliedwerk, Linz 1996
F:dort in A-moll
Z:abc transcription Simon Wascher
F:http://simonwascher.info/
M:3/4
L:1/4
K:Gm
BBB | A2A | GG^F | G3 |
GGG | F2D | (E3 | D3) :|
ABc | d3 | BAG | ^F3 |
D=E^F | G>AB | A3 | G3 :|
